assets/Police car/Flat/police_car_flat.svg

<svg width="32" height="32" viewBox="0 0 32 32" fill="none" xmlns="http://www.w3.org/2000/svg">
<path d="M4 21H28V27H4V21Z" fill="black"/>
<path d="M21.79 11.01C22.53 11.01 23.21 11.43 23.54 12.09L23.9921 12.9942L24.9327 15.9971L26.995 19H28.0407C29.1203 19 30 19.8789 30 20.9575L29.6141 22.4768L30 23.996V25.0424C30 26.1211 29.1203 27 28.0407 27H27.469C27.4895 26.8362 27.5 26.6693 27.5 26.5C27.5 24.2909 25.7091 22.5 23.5 22.5C21.2909 22.5 19.5 24.2909 19.5 26.5C19.5 26.6693 19.5105 26.8362 19.5309 27H12.4691C12.4895 26.8362 12.5 26.6693 12.5 26.5C12.5 24.2909 10.7091 22.5 8.5 22.5C6.29086 22.5 4.5 24.2909 4.5 26.5C4.5 26.6693 4.51052 26.8362 4.53095 27H3.9593C2.87968 27 2 26.1211 2 25.0424V24.0037L3.31953 22.5056L2 21.0075C2 19.8589 2.87968 19.01 3.9593 19.01L7.0007 19.0086L9.19709 16.0975L10.0048 13.0004L10.46 12.09C10.79 11.43 11.47 11.01 12.21 11.01H17H21.79Z" fill="#636363"/>
<path d="M12 26.5C12 28.433 10.433 30 8.5 30C6.567 30 5 28.433 5 26.5C5 24.567 6.567 23 8.5 23C10.433 23 12 24.567 12 26.5ZM27 26.5C27 28.433 25.433 30 23.5 30C21.567 30 20 28.433 20 26.5C20 24.567 21.567 23 23.5 23C25.433 23 27 24.567 27 26.5Z" fill="#321B41"/>
<path d="M16 10H18V11H16V10Z" fill="#D3D3D3"/>
<path d="M8 22.5309V19H24V22.5309C23.8362 22.5105 23.6693 22.5 23.5 22.5C21.2909 22.5 19.5 24.2909 19.5 26.5C19.5 26.6693 19.5105 26.8362 19.5309 27H12.4691C12.4895 26.8362 12.5 26.6693 12.5 26.5C12.5 24.2909 10.7091 22.5 8.5 22.5C8.33067 22.5 8.1638 22.5105 8 22.5309Z" fill="#D3D3D3"/>
<path d="M10 26.5C10 27.3284 9.32843 28 8.5 28C7.67157 28 7 27.3284 7 26.5C7 25.6716 7.67157 25 8.5 25C9.32843 25 10 25.6716 10 26.5Z" fill="#D3D3D3"/>
<path d="M25 26.5C25 27.3284 24.3284 28 23.5 28C22.6716 28 22 27.3284 22 26.5C22 25.6716 22.6716 25 23.5 25C24.3284 25 25 25.6716 25 26.5Z" fill="#D3D3D3"/>
<path d="M4 22C4 21.45 3.55 21 3 21H2V23.34V24H3C3.55 24 4 23.55 4 23V22Z" fill="#FFF478"/>
<path fill-rule="evenodd" clip-rule="evenodd" d="M16 9C16 8.45 16.45 8 17 8C17.55 8 18 8.45 18 9V10H16V9ZM28 22.57C27.96 21.71 28.65 21 29.5 21H30V22V24H29.55C28.74 24 28.04 23.38 28 22.57Z" fill="#F92F60"/>
<path d="M15.02 19H7L10 13H15.02C15.56 13 16 13.44 16 13.98V18.02C16 18.56 15.56 19 15.02 19ZM18.98 19H27L24 13H18.98C18.44 13 18 13.44 18 13.98V18.02C18 18.56 18.44 19 18.98 19Z" fill="#26C9FC"/>
<path d="M11.13 20H11.52C11.79 20 12 19.78 12 19.52V17.48C12 17.21 11.78 17 11.52 17H11.13C10.51 17 10 17.51 10 18.13V18.87C10 19.5 10.51 20 11.13 20Z" fill="#D3D3D3"/>
<path d="M11.13 20H11.52C11.79 20 12 19.78 12 19.52V17.48C12 17.21 11.78 17 11.52 17H11.13C10.51 17 10 17.51 10 18.13V18.87C10 19.5 10.51 20 11.13 20Z" fill="#9B9B9B"/>
</svg>

<svg xmlns="http://www.w3.org/2000/svg" width="32" height="32" fill="none"><path fill="#000" d="M4 21h24v6H4v-6Z"/><path fill="#636363" d="M21.79 11.01c.74 0 1.42.42 1.75 1.08l.452.904.94 3.003L26.996 19h1.046c1.08 0 1.959.879 1.959 1.957l-.386 1.52.386 1.519v1.046c0 1.08-.88 1.958-1.96 1.958h-.571a4 4 0 1 0-7.938 0h-7.062a4 4 0 1 0-7.938 0h-.572C2.88 27 2 26.121 2 25.042v-1.038l1.32-1.498L2 21.008c0-1.15.88-1.998 1.96-1.998L7 19.009l2.197-2.912.808-3.097.455-.91a1.96 1.96 0 0 1 1.75-1.08h9.58Z"/><path fill="#321B41" d="M12 26.5a3.5 3.5 0 1 1-7 0 3.5 3.5 0 0 1 7 0Zm15 0a3.5 3.5 0 1 1-7 0 3.5 3.5 0 0 1 7 0Z"/><path fill="#D3D3D3" d="M16 10h2v1h-2v-1ZM8 22.53V19h16v3.53A4 4 0 0 0 19.53 27h-7.06A4 4 0 0 0 8 22.53ZM10 26.5a1.5 1.5 0 1 1-3 0 1.5 1.5 0 0 1 3 0ZM25 26.5a1.5 1.5 0 1 1-3 0 1.5 1.5 0 0 1 3 0Z"/><path fill="#FFF478" d="M4 22c0-.55-.45-1-1-1H2v3h1c.55 0 1-.45 1-1v-1Z"/><path fill="#F92F60" fill-rule="evenodd" d="M16 9c0-.55.45-1 1-1s1 .45 1 1v1h-2V9Zm12 13.57c-.04-.86.65-1.57 1.5-1.57h.5v3h-.45c-.81 0-1.51-.62-1.55-1.43Z" clip-rule="evenodd"/><path fill="#26C9FC" d="M15.02 19H7l3-6h5.02c.54 0 .98.44.98.98v4.04c0 .54-.44.98-.98.98Zm3.96 0H27l-3-6h-5.02c-.54 0-.98.44-.98.98v4.04c0 .54.44.98.98.98Z"/><path fill="#D3D3D3" d="M11.13 20h.39c.27 0 .48-.22.48-.48v-2.04a.48.48 0 0 0-.48-.48h-.39c-.62 0-1.13.51-1.13 1.13v.74c0 .63.51 1.13 1.13 1.13Z"/><path fill="#9B9B9B" d="M11.13 20h.39c.27 0 .48-.22.48-.48v-2.04a.48.48 0 0 0-.48-.48h-.39c-.62 0-1.13.51-1.13 1.13v.74c0 .63.51 1.13 1.13 1.13Z"/></svg>
